mimetypes/32/application-x-bittorrent.svg

<svg height="32" viewBox="0 0 32 32" width="32" xmlns="http://www.w3.org/2000/svg"><g transform="translate(12 -288.39999)"><path d="m-6.9999995 289.39999h21.9999995c1.107999 0 2 .892 2 2v26c0 1.108-.892001 2-2 2h-21.9999995c-1.108 0-2-.892-2-2v-26c0-1.108.892-2 2-2z" fill="#6e7cd4"/><path d="m-6.9999995 290.39999h21.9999995c.553999 0 1 .446 1 1v26c0 .554-.446001 1-1 1h-21.9999995c-.554 0-1-.446-1-1v-26c0-.554.446-1 1-1z" fill="#93a0e6"/><path d="m16.117188 10.900391a8 8.0530043 0 0 0 -5.773438 2.359375 8 8.0530043 0 0 0 -1.734375 8.77539 8 8.0530043 0 0 0 7.390625 4.970703v-.005859h12v-1h-12a7 7.0463786 0 0 1 -.699219-.035156 7 7.0463786 0 0 1 -.691406-.105469 7 7.0463786 0 0 1 -.677734-.173828 7 7.0463786 0 0 1 -.658203-.242188 7 7.0463786 0 0 1 -.628907-.30664 7 7.0463786 0 0 1 -.597656-.367188 7 7.0463786 0 0 1 -.556641-.427734 7 7.0463786 0 0 1 -.511718-.478516 7 7.0463786 0 0 1 -.460938-.529297 7 7.0463786 0 0 1 -.408203-.574218 7 7.0463786 0 0 1 -.3476562-.611328 7 7.0463786 0 0 1 -.2285157-.498047 7 7.0463786 0 0 1 -.2363281-.664063 7 7.0463786 0 0 1 -.1679688-.683594 7 7.0463786 0 0 1 -.0996093-.697265 7 7.0463786 0 0 1 -.0292969-.703125 7 7.0463786 0 0 1 .0410156-.703125 7 7.0463786 0 0 1 .109375-.697266 7 7.0463786 0 0 1 .1777344-.679687 7 7.0463786 0 0 1 .2441406-.660157 7 7.0463786 0 0 1 .3085938-.632812 7 7.0463786 0 0 1 .3710936-.597656 7 7.0463786 0 0 1 .427735-.556641 7 7.0463786 0 0 1 .371093-.404297 7 7.0463786 0 0 1 .517578-.472656 7 7.0463786 0 0 1 .564453-.417969 7 7.0463786 0 0 1 .601563-.359375 7 7.0463786 0 0 1 .634766-.296875 7 7.0463786 0 0 1 .660156-.232422 7 7.0463786 0 0 1 .679687-.164062 7 7.0463786 0 0 1 .69336-.095703 7 7.0463786 0 0 1 .699218-.023438 7 7.0463786 0 0 1 .699219.044922 7 7.0463786 0 0 1 .689453.115234 7 7.0463786 0 0 1 .675782.183594 7 7.0463786 0 0 1 .513672.191406 7 7.0463786 0 0 1 .630859.300782 7 7.0463786 0 0 1 .599609.365234 7 7.0463786 0 0 1 .560547.421875 7 7.0463786 0 0 1 .515625.476562 7 7.0463786 0 0 1 .464844.525391 7 7.0463786 0 0 1 .412109.570313 7 7.0463786 0 0 1 .351563.607422 7 7.0463786 0 0 1 .291015.640624 7 7.0463786 0 0 1 .22461.667969 7 7.0463786 0 0 1 .158203.685547 7 7.0463786 0 0 1 .089844.699219 7 7.0463786 0 0 1 .021484.548828h1a8 8.0530043 0 0 0 -4.939453-7.439453 8 8.0530043 0 0 0 -2.943359-.613281zm-.029297 2.027343a6 6.039753 0 0 0 -4.330079 1.767578 6 6.039753 0 0 0 -1.300781 6.582032 6 6.039753 0 0 0 5.542969 3.728515v-.005859h12v-1h-12a5 5.0331273 0 0 1 -.5-.025391 5 5.0331273 0 0 1 -.494141-.074218 5 5.0331273 0 0 1 -.484375-.125 5 5.0331273 0 0 1 -.46875-.171875 5 5.0331273 0 0 1 -.449218-.220704 5 5.0331273 0 0 1 -.425782-.261718 5 5.0331273 0 0 1 -.398437-.304688 5 5.0331273 0 0 1 -.365235-.34375 5 5.0331273 0 0 1 -.330078-.376953 5 5.0331273 0 0 1 -.291015-.410156 5 5.0331273 0 0 1 -.248047-.435547 5 5.0331273 0 0 1 -.164063-.357422 5 5.0331273 0 0 1 -.167968-.472656 5 5.0331273 0 0 1 -.121094-.488281 5 5.0331273 0 0 1 -.070313-.498047 5 5.0331273 0 0 1 -.021484-.503906 5 5.0331273 0 0 1 .029297-.501954 5 5.0331273 0 0 1 .078125-.496093 5 5.0331273 0 0 1 .126953-.486329 5 5.0331273 0 0 1 .173828-.472656 5 5.0331273 0 0 1 .220703-.451172 5 5.0331273 0 0 1 .265625-.427734 5 5.0331273 0 0 1 .304688-.396484 5 5.0331273 0 0 1 .265625-.289063 5 5.0331273 0 0 1 .371094-.337891 5 5.0331273 0 0 1 .402343-.298828 5 5.0331273 0 0 1 .429688-.255859 5 5.0331273 0 0 1 .453125-.212891 5 5.0331273 0 0 1 .470703-.166015 5 5.0331273 0 0 1 .486328-.117188 5 5.0331273 0 0 1 .496094-.068359 5 5.0331273 0 0 1 .498047-.017578 5 5.0331273 0 0 1 .5.033203 5 5.0331273 0 0 1 .492187.082031 5 5.0331273 0 0 1 .482422.132813 5 5.0331273 0 0 1 .367187.134765 5 5.0331273 0 0 1 .451172.216797 5 5.0331273 0 0 1 .427735.259766 5 5.0331273 0 0 1 .40039.300781 5 5.0331273 0 0 1 .367188.339844 5 5.0331273 0 0 1 .333984.375 5 5.0331273 0 0 1 .292969.408203 5 5.0331273 0 0 1 .251953.433594 5 5.0331273 0 0 1 .207031.458984 5 5.0331273 0 0 1 .16211.476563 5 5.0331273 0 0 1 .113281.488281 5 5.0331273 0 0 1 .0625.5 5 5.0331273 0 0 1 .015625.392578h1a6 6.039753 0 0 0 -3.703125-5.580078 6 6.039753 0 0 0 -2.208984-.458985zm-.029297 2.027344a4 4.0265021 0 0 0 -2.886719 1.177734 4 4.0265021 0 0 0 -.867187 4.388672 4 4.0265021 0 0 0 3.695312 2.486328v-.007812h12v-1h-12a3 3.0198765 0 0 1 -.298828-.015625 3 3.0198765 0 0 1 -.296875-.044922 3 3.0198765 0 0 1 -.291016-.074219 3 3.0198765 0 0 1 -.28125-.103515 3 3.0198765 0 0 1 -.269531-.13086 3 3.0198765 0 0 1 -.255859-.158203 3 3.0198765 0 0 1 -.240235-.18164 3 3.0198765 0 0 1 -.21875-.207032 3 3.0198765 0 0 1 -.197265-.226562 3 3.0198765 0 0 1 -.173829-.246094 3 3.0198765 0 0 1 -.15039-.261719 3 3.0198765 0 0 1 -.097656-.21289 3 3.0198765 0 0 1 -.101563-.285157 3 3.0198765 0 0 1 -.072265-.292968 3 3.0198765 0 0 1 -.041016-.298828 3 3.0198765 0 0 1 -.013672-.300782 3 3.0198765 0 0 1 .017578-.302734 3 3.0198765 0 0 1 .046875-.296875 3 3.0198765 0 0 1 .076172-.292969 3 3.0198765 0 0 1 .105469-.28125 3 3.0198765 0 0 1 .130859-.271484 3 3.0198765 0 0 1 .160156-.25586 3 3.0198765 0 0 1 .181641-.240234 3 3.0198765 0 0 1 .160156-.171875 3 3.0198765 0 0 1 .222656-.203125 3 3.0198765 0 0 1 .240235-.179687 3 3.0198765 0 0 1 .257812-.154297 3 3.0198765 0 0 1 .273438-.126953 3 3.0198765 0 0 1 .283203-.09961 3 3.0198765 0 0 1 .291016-.070312 3 3.0198765 0 0 1 .296875-.041016 3 3.0198765 0 0 1 .298828-.009765 3 3.0198765 0 0 1 .300781.019531 3 3.0198765 0 0 1 .294922.048828 3 3.0198765 0 0 1 .289062.080078 3 3.0198765 0 0 1 .220704.082031 3 3.0198765 0 0 1 .271484.128906 3 3.0198765 0 0 1 .255859.15625 3 3.0198765 0 0 1 .240235.179688 3 3.0198765 0 0 1 .220703.205078 3 3.0198765 0 0 1 .199219.22461 3 3.0198765 0 0 1 .175781.24414 3 3.0198765 0 0 1 .152343.261719 3 3.0198765 0 0 1 .125.273437 3 3.0198765 0 0 1 .095704.28711 3 3.0198765 0 0 1 .068359.292968 3 3.0198765 0 0 1 .037109.298829 3 3.0198765 0 0 1 .009766.236328h1a4 4.0265021 0 0 0 -2.46875-3.720703 4 4.0265021 0 0 0 -1.472656-.304688z" fill="#ebecf4" transform="translate(-12 288.39999)"/></g></svg>

<?xml version="1.0" encoding="UTF-8" standalone="no"?>
<!-- Created with Inkscape (http://www.inkscape.org/) -->

<svg
   xmlns:dc="http://purl.org/dc/elements/1.1/"
   xmlns:cc="http://creativecommons.org/ns#"
   xmlns:rdf="http://www.w3.org/1999/02/22-rdf-syntax-ns#"
   xmlns:svg="http://www.w3.org/2000/svg"
   xmlns="http://www.w3.org/2000/svg"
   xmlns:sodipodi="http://sodipodi.sourceforge.net/DTD/sodipodi-0.dtd"
   xmlns:inkscape="http://www.inkscape.org/namespaces/inkscape"
   width="32"
   height="32"
   viewBox="0 0 32 32"
   version="1.1"
   id="svg8"
   inkscape:version="0.92.4 5da689c313, 2019-01-14"
   sodipodi:docname="application-x-bittorrent.svg">
  <title
     id="title7895">Antu icon Theme</title>
  <defs
     id="defs2">
    <style
       id="current-color-scheme"
       type="text/css">
      .ColorScheme-Text {
        color:#122036;
      }
      </style>
    <style
       type="text/css"
       id="current-color-scheme-53">
      .ColorScheme-Text {
        color:#122036;
      }
      </style>
    <style
       id="current-color-scheme-5"
       type="text/css">
      .ColorScheme-Text {
        color:#122036;
      }
      </style>
    <style
       id="current-color-scheme-2"
       type="text/css">
      .ColorScheme-Text {
        color:#122036;
      }
      </style>
    <style
       id="current-color-scheme-1"
       type="text/css">
      .ColorScheme-Text {
        color:#122036;
      }
      </style>
    <style
       type="text/css"
       id="current-color-scheme-10">
      .ColorScheme-Text {
        color:#122036;
      }
      </style>
    <style
       id="current-color-scheme-0"
       type="text/css">
      .ColorScheme-Text {
        color:#122036;
      }
      </style>
    <style
       id="current-color-scheme-26"
       type="text/css">
      .ColorScheme-Text {
        color:#122036;
      }
      </style>
    <style
       id="current-color-scheme-7"
       type="text/css">
      .ColorScheme-Text {
        color:#122036;
      }
      </style>
  </defs>
  <sodipodi:namedview
     id="base"
     pagecolor="#ffffff"
     bordercolor="#666666"
     borderopacity="1.0"
     inkscape:pageopacity="0.0"
     inkscape:pageshadow="2"
     inkscape:zoom="22.627417"
     inkscape:cx="21.204006"
     inkscape:cy="18.635375"
     inkscape:document-units="px"
     inkscape:current-layer="g3958"
     showgrid="true"
     units="px"
     inkscape:window-width="1920"
     inkscape:window-height="1049"
     inkscape:window-x="0"
     inkscape:window-y="0"
     inkscape:window-maximized="1"
     objecttolerance="10"
     gridtolerance="10"
     guidetolerance="10"
     inkscape:snap-bbox="true"
     inkscape:bbox-paths="true"
     inkscape:bbox-nodes="true"
     inkscape:snap-bbox-edge-midpoints="true"
     inkscape:snap-bbox-midpoints="true">
    <inkscape:grid
       type="xygrid"
       id="grid7897"
       empspacing="4" />
  </sodipodi:namedview>
  <metadata
     id="metadata5">
    <rdf:RDF>
      <cc:Work
         rdf:about="">
        <dc:format>image/svg+xml</dc:format>
        <dc:type
           rdf:resource="http://purl.org/dc/dcmitype/StillImage" />
        <dc:title>Antu icon Theme</dc:title>
      </cc:Work>
    </rdf:RDF>
  </metadata>
  <g
     inkscape:label="Capa 1"
     inkscape:groupmode="layer"
     id="layer1"
     transform="translate(0,-282.64999)">
    <g
       id="g3958"
       transform="translate(12,-5.75)">
      <path
         inkscape:connector-curvature="0"
         style="opacity:1;fill:#6e7cd4;fill-opacity:1;stroke:none;stroke-width:1.99999988;stroke-linecap:round;stroke-linejoin:round;stroke-miterlimit:4;stroke-dasharray:none;stroke-opacity:1"
         d="M -6.9999995,289.39999 H 15 c 1.107999,0 2,0.892 2,2 v 26 c 0,1.108 -0.892001,2 -2,2 H -6.9999995 c -1.108,0 -2,-0.892 -2,-2 v -26 c 0,-1.108 0.892,-2 2,-2 z"
         id="rect827" />
      <path
         inkscape:connector-curvature="0"
         style="opacity:1;fill:#93a0e6;fill-opacity:1;stroke:none;stroke-width:1.99999988;stroke-linecap:round;stroke-linejoin:round;stroke-miterlimit:4;stroke-dasharray:none;stroke-opacity:1"
         d="M -6.9999995,290.39999 H 15 c 0.553999,0 1,0.446 1,1 v 26 c 0,0.554 -0.446001,1 -1,1 H -6.9999995 c -0.554,0 -1,-0.446 -1,-1 v -26 c 0,-0.554 0.446,-1 1,-1 z"
         id="rect829" />
      <path
         style="opacity:1;vector-effect:none;fill:#ebecf4;fill-opacity:1;stroke:none;stroke-width:2.01527119;stroke-linecap:round;stroke-linejoin:round;stroke-miterlimit:4;stroke-dasharray:none;stroke-dashoffset:0;stroke-opacity:1;paint-order:normal"
         d="M 16.117188 10.900391 A 8 8.0530043 0 0 0 10.34375 13.259766 A 8 8.0530043 0 0 0 8.609375 22.035156 A 8 8.0530043 0 0 0 16 27.005859 L 16 27 L 28 27 L 28 26 L 16 26 A 7 7.0463786 0 0 1 15.300781 25.964844 A 7 7.0463786 0 0 1 14.609375 25.859375 A 7 7.0463786 0 0 1 13.931641 25.685547 A 7 7.0463786 0 0 1 13.273438 25.443359 A 7 7.0463786 0 0 1 12.644531 25.136719 A 7 7.0463786 0 0 1 12.046875 24.769531 A 7 7.0463786 0 0 1 11.490234 24.341797 A 7 7.0463786 0 0 1 10.978516 23.863281 A 7 7.0463786 0 0 1 10.517578 23.333984 A 7 7.0463786 0 0 1 10.109375 22.759766 A 7 7.0463786 0 0 1 9.7617188 22.148438 A 7 7.0463786 0 0 1 9.5332031 21.650391 A 7 7.0463786 0 0 1 9.296875 20.986328 A 7 7.0463786 0 0 1 9.1289062 20.302734 A 7 7.0463786 0 0 1 9.0292969 19.605469 A 7 7.0463786 0 0 1 9 18.902344 A 7 7.0463786 0 0 1 9.0410156 18.199219 A 7 7.0463786 0 0 1 9.1503906 17.501953 A 7 7.0463786 0 0 1 9.328125 16.822266 A 7 7.0463786 0 0 1 9.5722656 16.162109 A 7 7.0463786 0 0 1 9.8808594 15.529297 A 7 7.0463786 0 0 1 10.251953 14.931641 A 7 7.0463786 0 0 1 10.679688 14.375 A 7 7.0463786 0 0 1 11.050781 13.970703 A 7 7.0463786 0 0 1 11.568359 13.498047 A 7 7.0463786 0 0 1 12.132812 13.080078 A 7 7.0463786 0 0 1 12.734375 12.720703 A 7 7.0463786 0 0 1 13.369141 12.423828 A 7 7.0463786 0 0 1 14.029297 12.191406 A 7 7.0463786 0 0 1 14.708984 12.027344 A 7 7.0463786 0 0 1 15.402344 11.931641 A 7 7.0463786 0 0 1 16.101562 11.908203 A 7 7.0463786 0 0 1 16.800781 11.953125 A 7 7.0463786 0 0 1 17.490234 12.068359 A 7 7.0463786 0 0 1 18.166016 12.251953 A 7 7.0463786 0 0 1 18.679688 12.443359 A 7 7.0463786 0 0 1 19.310547 12.744141 A 7 7.0463786 0 0 1 19.910156 13.109375 A 7 7.0463786 0 0 1 20.470703 13.53125 A 7 7.0463786 0 0 1 20.986328 14.007812 A 7 7.0463786 0 0 1 21.451172 14.533203 A 7 7.0463786 0 0 1 21.863281 15.103516 A 7 7.0463786 0 0 1 22.214844 15.710938 A 7 7.0463786 0 0 1 22.505859 16.351562 A 7 7.0463786 0 0 1 22.730469 17.019531 A 7 7.0463786 0 0 1 22.888672 17.705078 A 7 7.0463786 0 0 1 22.978516 18.404297 A 7 7.0463786 0 0 1 23 18.953125 L 24 18.953125 A 8 8.0530043 0 0 0 19.060547 11.513672 A 8 8.0530043 0 0 0 16.117188 10.900391 z M 16.087891 12.927734 A 6 6.039753 0 0 0 11.757812 14.695312 A 6 6.039753 0 0 0 10.457031 21.277344 A 6 6.039753 0 0 0 16 25.005859 L 16 25 L 28 25 L 28 24 L 16 24 A 5 5.0331273 0 0 1 15.5 23.974609 A 5 5.0331273 0 0 1 15.005859 23.900391 A 5 5.0331273 0 0 1 14.521484 23.775391 A 5 5.0331273 0 0 1 14.052734 23.603516 A 5 5.0331273 0 0 1 13.603516 23.382812 A 5 5.0331273 0 0 1 13.177734 23.121094 A 5 5.0331273 0 0 1 12.779297 22.816406 A 5 5.0331273 0 0 1 12.414062 22.472656 A 5 5.0331273 0 0 1 12.083984 22.095703 A 5 5.0331273 0 0 1 11.792969 21.685547 A 5 5.0331273 0 0 1 11.544922 21.25 A 5 5.0331273 0 0 1 11.380859 20.892578 A 5 5.0331273 0 0 1 11.212891 20.419922 A 5 5.0331273 0 0 1 11.091797 19.931641 A 5 5.0331273 0 0 1 11.021484 19.433594 A 5 5.0331273 0 0 1 11 18.929688 A 5 5.0331273 0 0 1 11.029297 18.427734 A 5 5.0331273 0 0 1 11.107422 17.931641 A 5 5.0331273 0 0 1 11.234375 17.445312 A 5 5.0331273 0 0 1 11.408203 16.972656 A 5 5.0331273 0 0 1 11.628906 16.521484 A 5 5.0331273 0 0 1 11.894531 16.09375 A 5 5.0331273 0 0 1 12.199219 15.697266 A 5 5.0331273 0 0 1 12.464844 15.408203 A 5 5.0331273 0 0 1 12.835938 15.070312 A 5 5.0331273 0 0 1 13.238281 14.771484 A 5 5.0331273 0 0 1 13.667969 14.515625 A 5 5.0331273 0 0 1 14.121094 14.302734 A 5 5.0331273 0 0 1 14.591797 14.136719 A 5 5.0331273 0 0 1 15.078125 14.019531 A 5 5.0331273 0 0 1 15.574219 13.951172 A 5 5.0331273 0 0 1 16.072266 13.933594 A 5 5.0331273 0 0 1 16.572266 13.966797 A 5 5.0331273 0 0 1 17.064453 14.048828 A 5 5.0331273 0 0 1 17.546875 14.181641 A 5 5.0331273 0 0 1 17.914062 14.316406 A 5 5.0331273 0 0 1 18.365234 14.533203 A 5 5.0331273 0 0 1 18.792969 14.792969 A 5 5.0331273 0 0 1 19.193359 15.09375 A 5 5.0331273 0 0 1 19.560547 15.433594 A 5 5.0331273 0 0 1 19.894531 15.808594 A 5 5.0331273 0 0 1 20.1875 16.216797 A 5 5.0331273 0 0 1 20.439453 16.650391 A 5 5.0331273 0 0 1 20.646484 17.109375 A 5 5.0331273 0 0 1 20.808594 17.585938 A 5 5.0331273 0 0 1 20.921875 18.074219 A 5 5.0331273 0 0 1 20.984375 18.574219 A 5 5.0331273 0 0 1 21 18.966797 L 22 18.966797 A 6 6.039753 0 0 0 18.296875 13.386719 A 6 6.039753 0 0 0 16.087891 12.927734 z M 16.058594 14.955078 A 4 4.0265021 0 0 0 13.171875 16.132812 A 4 4.0265021 0 0 0 12.304688 20.521484 A 4 4.0265021 0 0 0 16 23.007812 L 16 23 L 28 23 L 28 22 L 16 22 A 3 3.0198765 0 0 1 15.701172 21.984375 A 3 3.0198765 0 0 1 15.404297 21.939453 A 3 3.0198765 0 0 1 15.113281 21.865234 A 3 3.0198765 0 0 1 14.832031 21.761719 A 3 3.0198765 0 0 1 14.5625 21.630859 A 3 3.0198765 0 0 1 14.306641 21.472656 A 3 3.0198765 0 0 1 14.066406 21.291016 A 3 3.0198765 0 0 1 13.847656 21.083984 A 3 3.0198765 0 0 1 13.650391 20.857422 A 3 3.0198765 0 0 1 13.476562 20.611328 A 3 3.0198765 0 0 1 13.326172 20.349609 A 3 3.0198765 0 0 1 13.228516 20.136719 A 3 3.0198765 0 0 1 13.126953 19.851562 A 3 3.0198765 0 0 1 13.054688 19.558594 A 3 3.0198765 0 0 1 13.013672 19.259766 A 3 3.0198765 0 0 1 13 18.958984 A 3 3.0198765 0 0 1 13.017578 18.65625 A 3 3.0198765 0 0 1 13.064453 18.359375 A 3 3.0198765 0 0 1 13.140625 18.066406 A 3 3.0198765 0 0 1 13.246094 17.785156 A 3 3.0198765 0 0 1 13.376953 17.513672 A 3 3.0198765 0 0 1 13.537109 17.257812 A 3 3.0198765 0 0 1 13.71875 17.017578 A 3 3.0198765 0 0 1 13.878906 16.845703 A 3 3.0198765 0 0 1 14.101562 16.642578 A 3 3.0198765 0 0 1 14.341797 16.462891 A 3 3.0198765 0 0 1 14.599609 16.308594 A 3 3.0198765 0 0 1 14.873047 16.181641 A 3 3.0198765 0 0 1 15.15625 16.082031 A 3 3.0198765 0 0 1 15.447266 16.011719 A 3 3.0198765 0 0 1 15.744141 15.970703 A 3 3.0198765 0 0 1 16.042969 15.960938 A 3 3.0198765 0 0 1 16.34375 15.980469 A 3 3.0198765 0 0 1 16.638672 16.029297 A 3 3.0198765 0 0 1 16.927734 16.109375 A 3 3.0198765 0 0 1 17.148438 16.191406 A 3 3.0198765 0 0 1 17.419922 16.320312 A 3 3.0198765 0 0 1 17.675781 16.476562 A 3 3.0198765 0 0 1 17.916016 16.65625 A 3 3.0198765 0 0 1 18.136719 16.861328 A 3 3.0198765 0 0 1 18.335938 17.085938 A 3 3.0198765 0 0 1 18.511719 17.330078 A 3 3.0198765 0 0 1 18.664062 17.591797 A 3 3.0198765 0 0 1 18.789062 17.865234 A 3 3.0198765 0 0 1 18.884766 18.152344 A 3 3.0198765 0 0 1 18.953125 18.445312 A 3 3.0198765 0 0 1 18.990234 18.744141 A 3 3.0198765 0 0 1 19 18.980469 L 20 18.980469 A 4 4.0265021 0 0 0 17.53125 15.259766 A 4 4.0265021 0 0 0 16.058594 14.955078 z "
         transform="translate(-12,288.39999)"
         id="path835" />
    </g>
  </g>
</svg>
